packages/tokens/icons/filterClear/size16Px.svg

<svg viewBox="0 0 16 16" fill="none" xmlns="http://www.w3.org/2000/svg" width="1em" height="1em"><path d="M8.83238 7.17868C8.82612 7.18472 8.82002 7.19093 8.81409 7.19728C8.61105 7.41482 8.5 7.702 8.5 7.99795L8.5 13.3373C8.5 13.4416 8.4218 13.5 8.35714 13.5L5.64285 13.5C5.57819 13.5 5.5 13.4416 5.5 13.3373L5.5 7.99794C5.5 7.70199 5.38895 7.41482 5.18591 7.19728C5.17998 7.19092 5.17388 7.18472 5.16762 7.17868L1.53949 3.67681C1.51529 3.64784 1.5 3.60832 1.5 3.56487L1.50001 2.66272C1.50001 2.5584 1.5782 2.5 1.64286 2.5L12.3571 2.50002C12.4218 2.50002 12.5 2.55842 12.5 2.66275L12.5 3.56489C12.5 3.60834 12.4847 3.64786 12.4605 3.67683L8.83238 7.17868Z" stroke="currentColor" stroke-linejoin="round"/><path d="M10.4142 9.41391L13.2426 12.2423M10.4142 12.2423L13.2426 9.41391" stroke="currentColor" stroke-linecap="round"/></svg>

<svg xmlns="http://www.w3.org/2000/svg" fill="none" viewBox="0 0 16 16" width="1em" height="1em"><path stroke="currentColor" stroke-linejoin="round" d="M8.832 7.179a1.174 1.174 0 0 0-.332.82v5.338c0 .105-.078.163-.143.163H5.643c-.065 0-.143-.058-.143-.163v-5.34a1.174 1.174 0 0 0-.332-.818L1.539 3.677a.175.175 0 0 1-.039-.112v-.902c0-.105.078-.163.143-.163h10.714c.065 0 .143.058.143.163v.902a.175.175 0 0 1-.04.112L8.832 7.179Z"/><path stroke="currentColor" stroke-linecap="round" d="m10.414 9.414 2.829 2.828m-2.829 0 2.829-2.828"/></svg>
